static/assets/svg/human/humanClothes/female_shirt10_stickers/female_shirt10_sticker15.svg

<svg class="shirtOverlay" width="86" height="380" viewBox="202.715 584.407 86.593 380.048" preserveAspectRatio="xMidYMax" xmlns="http://www.w3.org/2000/svg" xmlns:xlink="http://www.w3.org/1999/xlink"><defs><pattern id="a" width="20" height="20" patternUnits="userSpaceOnUse" viewBox="0 0 100 100"><g stroke="#000" fill="none"><path d="M436.25 213.1c125.37 0 125.37.5 125.37.5" stroke-linecap="round" stroke-width="14.152" transform="matrix(.56465 0 0 .57496 -206.705 -106.682)"/><path d="M557.79 218.91l-15.11 153.31h-73.35l-28.32-153.63" stroke-linejoin="round" stroke-width="9" transform="matrix(.56465 0 0 .57496 -206.705 -106.682)"/><path d="M445.07 242.53h111.22M552.3 269.96H450.56M455.05 294.9h94.76M460.03 319.84c87.28 0 87.28.99 87.28.99M544.82 346.77h-80.3M468.51 213.6l19.45 157.11M504.92 370.21l-4.99-156.11M530.36 214.6l-5.99 157.11" stroke-width="8" transform="matrix(.56465 0 0 .57496 -206.705 -106.682)"/><g><path d="M436.25 213.1c125.37 0 125.37.5 125.37.5" stroke-linecap="round" stroke-width="14.152" transform="matrix(.56465 0 0 .57496 -172.113 -61.591)"/><path d="M557.79 218.91l-15.11 153.31h-73.35l-28.32-153.63" stroke-linejoin="round" stroke-width="9" transform="matrix(.56465 0 0 .57496 -172.113 -61.591)"/><path d="M445.07 242.53h111.22M552.3 269.96H450.56M455.05 294.9h94.76M460.03 319.84c87.28 0 87.28.99 87.28.99M544.82 346.77h-80.3M468.51 213.6l19.45 157.11M504.92 370.21l-4.99-156.11M530.36 214.6l-5.99 157.11" stroke-width="8" transform="matrix(.56465 0 0 .57496 -172.113 -61.591)"/></g><g><path d="M436.25 213.1c125.37 0 125.37.5 125.37.5" stroke-linecap="round" stroke-width="14.152" transform="matrix(.34761 .44496 -.4531 .35396 -7.122 -273.97)"/><path d="M557.79 218.91l-15.11 153.31h-73.35l-28.32-153.63" stroke-linejoin="round" stroke-width="9" transform="matrix(.34761 .44496 -.4531 .35396 -7.122 -273.97)"/><path d="M445.07 242.53h111.22M552.3 269.96H450.56M455.05 294.9h94.76M460.03 319.84c87.28 0 87.28.99 87.28.99M544.82 346.77h-80.3M468.51 213.6l19.45 157.11M504.92 370.21l-4.99-156.11M530.36 214.6l-5.99 157.11" stroke-width="8" transform="matrix(.34761 .44496 -.4531 .35396 -7.122 -273.97)"/></g></g></pattern><pattern id="b" patternTransform="matrix(30.28126 3.41585 .8241 -5.24274 87.215 207.381)" xlink:href="#a"/></defs><path d="M217.273 624.231c23.636 79.561-56.083-207.509-40.252-235.524 15.831-28.015 34.775-13.435 34.775-13.435s-13.777-53.554 11.702-67.351c25.479-13.797 30.425 1.944 30.425 1.944s5.645-57.85 11.915-67.585c6.27-9.735-33.634-138.068-33.634-138.068s8.179-68.199 34.102-66.164c25.923 2.035 20.262-43.186 20.262-43.186s13.345-1.997 21.009-13.894c7.663-11.897-1.896.092-1.896.092S277.388 4.578 283.636-7.748c6.248-12.326 26.714-19.174 26.714-19.174s-1.574-.368-19.653-20.29c-18.079-19.922-29.886-32.231-29.886-32.231s35.23 32.981-20.213-21.46C200.721-140.06 84.931-117.231 86.822-73.225c3.122 72.644 124.331 133.209 14.085 220.61-46.266 36.679-3.572 178.258-3.572 178.258s87.999 191.082 119.938 298.588z" transform="matrix(.28162 -.09379 0 .33596 194.172 717.49)" opacity=".802" stroke="#000" fill="url(#b)"/></svg>

<svg class="shirtOverlay" width="86" height="380" viewBox="202.715 584.407 86.5933 380.048" preserveAspectRatio="xMidYMax" xmlns="http://www.w3.org/2000/svg" xmlns:xlink="http://www.w3.org/1999/xlink">
  <defs id="svgEditorDefs">
    <path id="svgEditorClosePathDefs" fill="red" style="stroke-width: 0px; stroke: none;"/>
    <pattern id="pattern-0" x="0" y="0" width="20" height="20" patternUnits="userSpaceOnUse" viewBox="0 0 100 100">
      <g transform="matrix(0.06839608412522535, 0, 0, 0.06839608412522535, 39.316978454589844, 5.224429636735184)">
        <g id="g2276">
          <g id="g2260" transform="matrix(1, 0, 0, 1.073539, -2.381225, -23.978611)">
            <g id="basket" transform="matrix(8.255547, 0, 0, 7.830522, -3594.63208, -1501.736206)">
              <path id="path2280" style="stroke:#000000;stroke-linecap:round;stroke-width:14.152;fill:none" d="m436.25 213.1c125.37 0 125.37 0.5 125.37 0.5"/>
              <path id="path1405" style="stroke-linejoin:round;stroke:#000000;stroke-width:9;fill:none" d="m557.79 218.91l-15.11 153.31h-73.35l-28.32-153.63"/>
              <path id="path7527" style="stroke:#000000;stroke-width:8;fill:none" d="m445.07 242.53h111.22"/>
              <path id="path7529" style="stroke:#000000;stroke-width:8;fill:none" d="m552.3 269.96h-101.74"/>
              <path id="path7535" style="stroke:#000000;stroke-width:8;fill:none" d="m455.05 294.9h94.76"/>
              <path id="path7539" style="stroke:#000000;stroke-width:8;fill:none" d="m460.03 319.84c87.28 0 87.28 0.99 87.28 0.99"/>
              <path id="path7541" style="stroke:#000000;stroke-width:8;fill:none" d="m544.82 346.77h-80.3"/>
              <path id="path7543" style="stroke:#000000;stroke-width:8;fill:none" d="m468.51 213.6l19.45 157.11"/>
              <path id="path7545" style="stroke:#000000;stroke-width:8;fill:none" d="m504.92 370.21l-4.99-156.11"/>
              <path id="path7547" style="stroke:#000000;stroke-width:8;fill:none" d="m530.36 214.6l-5.99 157.11"/>
            </g>
            <g id="g-1" transform="matrix(8.255545616149902, 0, 0, 7.830522060394286, -3088.877728554546, -887.6368152978274)">
              <path id="path-1" style="stroke:#000000;stroke-linecap:round;stroke-width:14.152;fill:none" d="m436.25 213.1c125.37 0 125.37 0.5 125.37 0.5"/>
              <path id="path-2" style="stroke-linejoin:round;stroke:#000000;stroke-width:9;fill:none" d="m557.79 218.91l-15.11 153.31h-73.35l-28.32-153.63"/>
              <path id="path-3" style="stroke:#000000;stroke-width:8;fill:none" d="m445.07 242.53h111.22"/>
              <path id="path-4" style="stroke:#000000;stroke-width:8;fill:none" d="m552.3 269.96h-101.74"/>
              <path id="path-5" style="stroke:#000000;stroke-width:8;fill:none" d="m455.05 294.9h94.76"/>
              <path id="path-6" style="stroke:#000000;stroke-width:8;fill:none" d="m460.03 319.84c87.28 0 87.28 0.99 87.28 0.99"/>
              <path id="path-7" style="stroke:#000000;stroke-width:8;fill:none" d="m544.82 346.77h-80.3"/>
              <path id="path-8" style="stroke:#000000;stroke-width:8;fill:none" d="m468.51 213.6l19.45 157.11"/>
              <path id="path-9" style="stroke:#000000;stroke-width:8;fill:none" d="m504.92 370.21l-4.99-156.11"/>
              <path id="path-10" style="stroke:#000000;stroke-width:8;fill:none" d="m530.36 214.6l-5.99 157.11"/>
            </g>
            <g id="g-2" transform="matrix(5.082365, 6.060013, -6.624516, 4.820708, -676.585388, -3780.056641)">
              <path id="path-11" style="stroke:#000000;stroke-linecap:round;stroke-width:14.152;fill:none" d="m436.25 213.1c125.37 0 125.37 0.5 125.37 0.5"/>
              <path id="path-12" style="stroke-linejoin:round;stroke:#000000;stroke-width:9;fill:none" d="m557.79 218.91l-15.11 153.31h-73.35l-28.32-153.63"/>
              <path id="path-13" style="stroke:#000000;stroke-width:8;fill:none" d="m445.07 242.53h111.22"/>
              <path id="path-14" style="stroke:#000000;stroke-width:8;fill:none" d="m552.3 269.96h-101.74"/>
              <path id="path-15" style="stroke:#000000;stroke-width:8;fill:none" d="m455.05 294.9h94.76"/>
              <path id="path-16" style="stroke:#000000;stroke-width:8;fill:none" d="m460.03 319.84c87.28 0 87.28 0.99 87.28 0.99"/>
              <path id="path-17" style="stroke:#000000;stroke-width:8;fill:none" d="m544.82 346.77h-80.3"/>
              <path id="path-18" style="stroke:#000000;stroke-width:8;fill:none" d="m468.51 213.6l19.45 157.11"/>
              <path id="path-19" style="stroke:#000000;stroke-width:8;fill:none" d="m504.92 370.21l-4.99-156.11"/>
              <path id="path-20" style="stroke:#000000;stroke-width:8;fill:none" d="m530.36 214.6l-5.99 157.11"/>
            </g>
          </g>
        </g>
      </g>
    </pattern>
    <pattern id="pattern-0-0" patternTransform="matrix(30.281264, 3.41585, 0.824101, -5.242741, 87.214722, 207.381058)" xlink:href="#pattern-0"/>
  </defs>
  <g transform="matrix(0.281621, -0.09379, 0, 0.335958, 242.720749, 782.223389)">
    <g id="layer1" transform="translate(-172.39 -240.81)">
      <g id="g3019">
        <path id="path6074" d="M 217.273 624.231 C 240.909 703.792 161.19 416.722 177.021 388.707 C 192.852 360.692 211.796 375.272 211.796 375.272 C 211.796 375.272 198.019 321.718 223.498 307.921 C 248.977 294.124 253.923 309.865 253.923 309.865 C 253.923 309.865 259.568 252.015 265.838 242.28 C 272.108 232.545 232.204 104.212 232.204 104.212 C 232.204 104.212 240.383 36.013 266.306 38.048 C 292.229 40.083 286.568 -5.138 286.568 -5.138 C 286.568 -5.138 299.913 -7.135 307.577 -19.032 C 315.24 -30.929 305.681 -18.94 305.681 -18.94 C 305.681 -18.94 277.388 4.578 283.636 -7.748 C 289.884 -20.074 310.35 -26.922 310.35 -26.922 C 310.35 -26.922 308.776 -27.29 290.697 -47.212 C 272.618 -67.134 260.811 -79.443 260.811 -79.443 C 260.811 -79.443 296.041 -46.462 240.598 -100.903 C 200.721 -140.06 84.931 -117.231 86.822 -73.225 C 89.944 -0.581 211.153 59.984 100.907 147.385 C 54.641 184.064 97.335 325.643 97.335 325.643 C 97.335 325.643 185.334 516.725 217.273 624.231 Z" style="opacity: 0.80233; stroke: rgb(0, 0, 0); stroke-width: 1px; fill: url(#pattern-0-0);" transform="matrix(1, -0.000001, 0.000001, 1, -0.000037, 0.000223)"/>
      </g>
    </g>
  </g>
</svg>
